X: 1
T: Kate Elliot's
M: 6/8
L: 1/8
R: jig
K: Dmaj
|:DFA DFA|dfd ecA|gfe dcB|ABA GFE|
DFA DFA|dfd ecA|gfe dcB|Afe d3:|!
 * [|aAA gAA|fgf ecA|gfe dcB|ABA GFE|
aAA gAA|fgf ecA|gfe dcB|Afe d3|!
aAA gAA|fgf ecA|gfe dcB|ABA GFE|
DFA DFA|dfd ecA|gfe dcB|Afe d3|]
